!!!COM: Palestrina, Giovanni Perluigi da
!!!OPR: Missa Quem dicunt homines
!!!OTL: Gloria
**kern	**kern	**kern	**kern
*Ibass	*Itenor	*Icalto	*Icant
!Bassus	!Tenor	!Altus	!Cantus
*clefF4	*clefGv2	*clefG2	*clefG2
*k[]	*k[]	*k[]	*k[]
*C:ion	*C:ion	*C:ion	*C:ion
*M4/2	*M4/2	*M4/2	*M4/2
=1	=1	=1	=1
0r	1.G	0r	0r
.	2G	.	.
=2	=2	=2	=2
0r	2A	0r	1r
.	2B	.	.
.	2G	.	[1g
.	2G	.	.
=3	=3	=3	=3
0r	2.c	0r	2g]
.	.	.	2g
.	4B	.	.
.	2A	.	2a
.	2G	.	2b
=4	=4	=4	=4
0r	2.c	2r	2g
.	.	1c	2g
.	4B	.	.
.	2.A	.	2.cc
.	.	2c	.
.	4G	.	4b
=5	=5	=5	=5
0r	2F	2d	2a
.	2E	2e	2g
.	[1F	2c	4a
.	.	.	4g
.	.	2c	4f
.	.	.	4g
=6	=6	=6	=6
0r	1F]	2.f	4a
.	.	.	4b
.	.	.	4cc
.	.	4e	4a
.	1G	2d	2b
.	.	2c	[2cc
=7	=7	=7	=7
1r	2r	1d	4cc]
.	.	.	8b
.	.	.	8a
.	1G	.	2b
[1C	.	[1e	2cc
.	2G	.	[2g
=8	=8	=8	=8
2C]	2.c	1e]	2g]
2C	.	.	2g
.	4B	.	.
2.F	2A	1c	2a
.	2A	.	[2f
4E	.	.	.
=9	=9	=9	=9
2D	2B	2d	2f]
2C	1c	2G	1e
1F	.	1A	.
.	4B	.	2d
.	4A	.	.
=10	=10	=10	=10
1E	1G	2B	0e
.	.	2B	.
2r	2r	2A	.
2E	2B	2G	.
=11	=11	=11	=11
2C	2A	4c	1e
.	.	4d	.
2C	1G	4e	.
.	.	4f	.
2.E	.	[1g	1e
.	[2c	.	.
4F	.	.	.
=12	=12	=12	=12
1G	4c]	1g]	1d
.	8B	.	.
.	8A	.	.
.	2B	.	.
[1C	2.c	2r	1g
.	.	[2e	.
.	8B	.	.
.	8A	.	.
=13	=13	=13	=13
0C]	2G	2e]	2r
.	2A	2c	1e
.	1G	2e	.
.	.	2e	2c
=14	=14	=14	=14
2r	1r	2.g	2e
1E	.	.	2e
.	.	4f	.
.	2r	[1e	[1g
2C	2c	.	.
=15	=15	=15	=15
2E	2B	1e]	1g]
2E	1c	.	.
1G	.	1d	1g
.	2B	.	.
=16	=16	=16	=16
[0C	2.c	1c	2r
.	.	.	1e
.	8B	.	.
.	8A	.	.
.	2G	2r	.
.	2A	[2e	2c
=17	=17	=17	=17
1C]	1G	2e]	2e
.	.	2c	2e
2r	1r	2e	1g
[2E	.	2e	.
=18	=18	=18	=18
2E]	2r	2.g	2.e
2C	2c	.	.
.	.	4f	4f
2.E	2B	1e	[1g
.	[2c	.	.
4F	.	.	.
=19	=19	=19	=19
2G	2c]	1d	0g]
2G	2B	.	.
[1C	2.c	2r	.
.	.	2e	.
.	4B	.	.
=20	=20	=20	=20
0C]	2A	2c	2r
.	4G	2c	2e
.	4F	.	.
.	1G	2.e	2c
.	.	.	2c
.	.	4f	.
=21	=21	=21	=21
2r	1r	2.g	2.e
2E	.	.	.
.	.	4f	4f
2C	2r	4e	2g
.	.	4d	.
2C	[2c	[2e	2a
=22	=22	=22	=22
2.E	4c]	4e]	2.g
.	4B	4d	.
.	2e	2c	.
4F	.	.	4a
1G	2d	4B	4b
.	.	4G	4cc
.	2B	[2g	[2dd
=23	=23	=23	=23
1A	1c	2g]	4dd]
.	.	.	4cc
.	.	2f#	1cc
1G	1d	2.g	.
.	.	.	2b
.	.	4f	.
=24	=24	=24	=24
1C	1c	0e	1cc
2r	2r	.	2r
[2C	[2e	.	[2cc
=25	=25	=25	=25
2C]	2e]	2r	2cc]
2C	2e	1g	2cc
1C	1e	.	1cc
.	.	2g	.
=26	=26	=26	=26
2.G	2.d	1g	2b
.	.	.	2g
4G	4d	.	.
1D	1d	2f	1a
.	.	2d	.
=27	=27	=27	=27
1A	1c	2e	1cc
.	.	2f#	.
[1G	1d	2g	1b
.	.	2d	.
=28	=28	=28	=28
0G]	2r	2e	1.g
.	2d	2d	.
.	2e	2.B	.
.	2d	.	2g
.	.	4c	.
=29	=29	=29	=29
0r	2B	2d	1g
.	1c	1e	.
.	.	.	2g
.	4B	4d	[2g
.	4A	4c	.
=30	=30	=30	=30
0r	2B	2d	4g]
.	.	.	4g
.	2c	2e	2g
.	2A	2c	[1a
.	[2d	[2f	.
=31	=31	=31	=31
1r	2d]	2f]	1a]
.	1c	2e	.
[1G	.	1d	2.g
.	4B	.	.
.	4A	.	4f
=32	=32	=32	=32
2G]	[0B	2.g	2e
2G	.	.	2d
.	.	4f	.
1G	.	2e	2.g
.	.	2d	.
.	.	.	4f
=33	=33	=33	=33
2G	0B]	1g	2e
2.G	.	.	4d
.	.	.	4c
.	.	2r	1d
4G	.	.	.
2G	.	[2g	.
=34	=34	=34	=34
1A	2r	4g]	1c
.	.	4f	.
.	2.c	2f	.
1G	.	2e	1r
.	4c	.	.
.	2B	2d	.
=35	=35	=35	=35
0r	2A	2c	2r
.	2G	2B	2.g
.	[1c	1A	.
.	.	.	4g
.	.	.	2f
=36	=36	=36	=36
2r	2c]	1G	2e
2.G	4B	.	2d
.	4A	.	.
.	2B	1d	2g
4G	.	.	.
2F	2A	.	2a
=37	=37	=37	=37
2E	0c	2.e	2.g
2C	.	.	.
.	.	4f	4f
2E	.	2g	2e
2F	.	4f	2a
.	.	4e	.
=38	=38	=38	=38
4G	1B	2.d	0g
4F	.	.	.
4G	.	.	.
4A	.	4c	.
2B	1r	2d	.
[2c	.	2e	.
=39	=39	=39	=39
2c]	0r	1d	2r
2B	.	.	1g
1c	.	1e	.
.	.	.	2g
=40	=40	=40	=40
0C	2r	1g	1.e
.	1c	.	.
.	.	2g	.
.	2c	[2e	2c
=41	=41	=41	=41
0r	1A	2e]	2.e
.	.	2c	.
.	.	.	4f
.	2E	1e	4g
.	.	.	4f
.	2E	.	4g
.	.	.	4a
=42	=42	=42	=42
0r	2G	2d	2b
.	2A	2c	1cc
.	1G	2d	.
.	.	[2g	2b
=43	=43	=43	=43
2r	1c	2g]	0cc
1c	.	2g	.
.	1r	1e	.
2c	.	.	.
=44	=44	=44	=44
2A	1r	2f	0r
2B	.	2f	.
2c	2r	2.e	.
4C	[2c	.	.
4D	.	4f	.
=45	=45	=45	=45
4E	2c]	2g	0r
4C	.	.	.
1F	2c	2a	.
.	2A	2a	.
2G	2B	4g	.
.	.	4f	.
=46	=46	=46	=46
4A	2c	2e	2r
4G	.	.	.
4F	4A	2f	1cc
4G	4B	.	.
4A	4c	2e	.
4B	4d	.	.
[2c	[2e	4c	2cc
.	.	4d	.
=47	=47	=47	=47
2c]	2e]	4e	2a
.	.	4f	.
2B	2d	1g	2b
2A	2c	.	2cc
2A	2c	2f#	[2cc
=48	=48	=48	=48
1G	2d	2.g	2cc]
.	2G	.	2b
.	.	4f	.
1r	2.c	2.e	2a
.	.	.	4g
.	4d	4d	4f
=49	=49	=49	=49
1C	1.e	2c	2g
.	.	2c	2g
2.G	.	1B	[1g
.	4d	.	.
4A	4c	.	.
=50	=50	=50	=50
1B	1d	1G	1g]
1A	1e	2.c	1r
.	.	4d	.
=51	=51	=51	=51
1.c	1A	1.e	2r
.	.	.	2c
.	1r	.	2.g
4B	.	4d	.
4A	.	4c	4a
=52	=52	=52	=52
1G	2r	2.d	1b
.	1d	.	.
.	.	4e	.
2.A	.	2f	1a
.	[2c	2e	.
4G	.	.	.
=53	=53	=53	=53
1.F	4c]	2.A	2.cc
.	4B	.	.
.	4A	.	.
.	4G	4B	4b
.	2A	4c	2a
.	.	4d	.
4E	[2c	[2e	4g
4D	.	.	4f
=54	=54	=54	=54
2C	4c]	2e]	4e
.	4B	.	4f
2E	2G	2c	1g
1D	2A	2.d	.
.	[2d	.	2f#
.	.	4c	.
=55	=55	=55	=55
2.G	4d]	1B	1g
.	4d	.	.
.	2e	.	.
4G	.	.	.
2A	2c	1r	1r
2F	[2d	.	.
=56	=56	=56	=56
1G	4d]	2.d	0r
.	4c	.	.
.	2B	.	.
.	.	4d	.
2C	2A	2e	.
2E	2G	2c	.
=57	=57	=57	=57
4D	2.A	1d	0r
4E	.	.	.
4F	.	.	.
4G	4B	.	.
4A	1c	2f	.
4B	.	.	.
[2c	.	2e	.
=58	=58	=58	=58
2c]	1G	2d	1r
2B	.	1g	.
1A	2r	.	2.a
.	2c	2f#	.
.	.	.	4a
=59	=59	=59	=59
1G	2d	1g	2b
.	2e	.	2g
1r	2d	2f	2a
.	4c	4e	[2cc
.	4B	4d	.
=60	=60	=60	=60
0r	4A	2e	4cc]
.	4G	.	4b
.	2.F	2f	4a
.	.	.	4g
.	.	2.c	1a
.	4G	.	.
.	4A	.	.
.	4B	4d	.
=61	=61	=61	=61
1C	1c	1e	2g
.	.	.	1a
2D	1B	2f	.
2E	.	4e	2g#
.	.	4d	.
=62	=62	=62	=62
4F	0A	1c	0a
4E	.	.	.
4F	.	.	.
4G	.	.	.
2A	.	2r	.
[2F	.	2c	.
=63	=63	=63	=63
2F]	2r	2d	0r
2E	2G	2e	.
1D	2A	1f	.
.	2B	.	.
=64	=64	=64	=64
1C	4c	2.e	2r
.	4B	.	.
.	4c	.	2g
.	4d	4d	.
1r	2e	2c	2a
.	[2d	2B	2b
=65	=65	=65	=65
1r	2d]	1A	4cc
.	.	.	4b
.	1c	.	4cc
.	.	.	4dd
2r	.	1G	2ee
2G	2B	.	2dd
=66	=66	=66	=66
2A	2c	1r	2cc
2B	2d	.	4b
.	.	.	4a
2.c	1e	2r	2g
.	.	2c	[2cc
8B	.	.	.
8A	.	.	.
=67	=67	=67	=67
1G	0r	2d	2cc]
.	.	2e	2b
[1F	.	4f	2.a
.	.	4e	.
.	.	4f	.
.	.	4g	4b
=68	=68	=68	=68
2F]	2r	2a	1cc
2E	2G	2.g	.
1D	2A	.	1r
.	.	4f	.
.	2B	[2f	.
=69	=69	=69	=69
2C	4c	2f]	1g
.	4B	.	.
1c	4c	2e	.
.	4d	.	.
.	2e	2r	2a
2B	[2d	2g	2b
=70	=70	=70	=70
1A	2d]	2f	4cc
.	.	.	4b
.	1c	2e	4cc
.	.	.	4dd
1G	.	1g	2ee
.	2B	.	[2dd
=71	=71	=71	=71
1A	1c	2.e	4dd]
.	.	.	4cc
.	.	.	1cc
.	.	4f	.
1G	1d	1g	.
.	.	.	2b
=72	=72	=72	=72
0C	2.c	2.e	2a
.	.	.	2g
.	4d	4f	.
.	1e	1g	1cc
=73	=73	=73	=73
0G	0d	0g	0b
=74	=74	=74	=74
0r	0r	1d	0r
.	.	1g	.
=75	=75	=75	=75
0r	0r	2g	1g
.	.	2g	.
.	.	2f	1cc
.	.	2e	.
=76	=76	=76	=76
0r	0r	1f	2cc
.	.	.	2cc
.	.	1d	2b
.	.	.	2a
=77	=77	=77	=77
0r	1G	1g	1b
.	1c	2e	2g
.	.	2e	[2a
=78	=78	=78	=78
1r	2c	1e	4a]
.	.	.	4g
.	2c	.	1g
1D	2B	[1d	.
.	2A	.	2f#
=79	=79	=79	=79
1G	1B	0d]	2g
.	.	.	2.dd
2G	4G	.	.
.	4A	.	4cc
2G	4B	.	2b
.	4c	.	.
=80	=80	=80	=80
2F	2d	1r	2a
2E	2e	.	2g
2.F	2A	1c	1a
.	[2c	.	.
4E	.	.	.
=81	=81	=81	=81
1D	2c]	1d	1f
.	2B	.	.
[1C	1c	1e	2r
.	.	.	[2g
=82	=82	=82	=82
1C]	2r	4c	2g]
.	.	4d	.
.	2c	4e	2a
.	.	8d	.
.	.	8e	.
1r	2d	2f	1b
.	[2e	[2g	.
=83	=83	=83	=83
2r	2e]	4g]	2g
.	.	4e	.
1F	2c	1a	1cc
.	1d	.	.
2G	.	4g	2b
.	.	4f	.
=84	=84	=84	=84
1A	2.c	2e	1cc
.	.	2.f	.
.	4B	.	.
2F	1A	.	1r
.	.	4e	.
[2c	.	4e	.
.	.	8d	.
.	.	8c	.
=85	=85	=85	=85
2c]	2G	1d	1g
2B	2d	.	.
2.A	2e	2r	1cc
.	2e	2c	.
4G	.	.	.
=86	=86	=86	=86
2.F	1A	1f	2cc
.	.	.	2cc
4E	.	.	.
1D	1d	2f	2b
.	.	2f	2a
=87	=87	=87	=87
1G	2r	2e	1b
.	2G	2d	.
2r	1c	1e	2g
2C	.	.	2g
=88	=88	=88	=88
1F	2c	2.A	1a
.	2c	.	.
.	.	4B	.
2F	2A	2c	1a
2F	2A	2d	.
=89	=89	=89	=89
2E	1B	2e	2g
2D	.	2f	2f
1E	2G	2.g	1e
.	[2G	.	.
.	.	4f	.
=90	=90	=90	=90
2C	2G]	1e	0r
2C	2A	.	.
2D	2.B	2d	.
[2E	.	[2g	.
.	8A	.	.
.	8G	.	.
=91	=91	=91	=91
2E]	1c	2g]	1r
4D	.	4f	.
4C	.	4e	.
1G	1B	1d	2r
.	.	.	[2g
=92	=92	=92	=92
1C	2.c	2r	2g]
.	.	2c	2a
.	8B	.	.
.	8A	.	.
1r	2G	2d	2.b
.	2G	[2e	.
.	.	.	8a
.	.	.	8g
=93	=93	=93	=93
1r	1A	2e]	1cc
.	.	4d	.
.	.	4c	.
[1G	[1d	1g	[1b
=94	=94	=94	=94
2G]	2d]	2r	2b]
2G	2d	1g	2b
2.G	2d	.	2b
.	2d	2g	2b
4F	.	.	.
=95	=95	=95	=95
2E	2e	2g	2cc
2F	2.c	2f	1a
1G	.	2e	.
.	8B	.	.
.	8A	.	.
.	2B	[2d	[2g
=96	=96	=96	=96
1A	1c	4d]	4g]
.	.	4c	8f#
.	.	.	8e
.	.	1c	2f#
1G	1d	.	1g
.	.	2B	.
=97	=97	=97	=97
1C	0e	2c	1g
.	.	2e	.
1E	.	1g	1r
=98	=98	=98	=98
1G	2.d	2g	1b
.	.	2g	.
.	4c	.	.
2G	1B	2.d	1dd
2G	.	.	.
.	.	4e	.
=99	=99	=99	=99
2.D	1r	2f	2dd
.	.	2f	2dd
4E	.	.	.
2F	2r	1c	1a
2F	2A	.	.
=100	=100	=100	=100
2E	1c	1r	2g
2F	.	.	2a
2C	2c	1e	2.g
[2c	2c	.	.
.	.	.	4f
=101	=101	=101	=101
4c]	2G	1g	2e
8B	.	.	.
8A	.	.	.
2B	2G	.	2d
1c	4C	2g	4e
.	4D	.	4f
.	4E	2g	4g
.	4F	.	4a
=102	=102	=102	=102
0r	2.G	2d	4b
.	.	.	4a
.	.	2g	4b
.	4A	.	4cc
.	2B-	2f	2dd
.	2c	2e	[2cc
=103	=103	=103	=103
2r	1G	1d	2cc]
2G	.	.	2b
2A	1c	2r	1cc
[2c	.	2c	.
=104	=104	=104	=104
2c]	0r	2e	1g
2B	.	1g	.
1A	.	.	2a
.	.	2f	[2cc
=105	=105	=105	=105
1G	2r	2e	2cc]
.	2G	2d	2b
1r	2A	2.c	1a
.	[2c	.	.
.	.	4d	.
=106	=106	=106	=106
1r	2c]	4e	1g
.	.	4f	.
.	2B	1g	.
1D	1A	.	2.dd
.	.	2f#	.
.	.	.	4cc
=107	=107	=107	=107
2E	2.G	2.g	4b
.	.	.	4a
1G	.	.	1b
.	4A	8f	.
.	.	8e	.
.	4B	1d	.
.	4c	.	.
2F	4d	.	[2a
.	4A	.	.
=108	=108	=108	=108
1E	4c	1r	4a]
.	4B	.	4g
.	4B	.	1g
.	8A	.	.
.	8G	.	.
1D	1A	2r	.
.	.	[2d	2f#
=109	=109	=109	=109
0G	1B	2d]	0g
.	.	2d	.
.	2r	2B	.
.	[2d	2G	.
=110	=110	=110	=110
2r	2d]	2.B	1r
1G	2d	.	.
.	.	4c	.
.	1B	2d	2r
2G	.	2d	[2g
=111	=111	=111	=111
2E	1G	2.e	2g]
2C	.	.	2g
.	.	4d	.
2E	1r	1c	2e
2F	.	.	2c
=112	=112	=112	=112
2.G	0r	2.B	2e
.	.	.	2d
4A	.	4c	.
2B	.	2d	2.g
[2c	.	[2e	.
.	.	.	8a
.	.	.	8b
=113	=113	=113	=113
4c]	0r	4e]	1.cc
4B	.	4f	.
4A	.	1g	.
4G	.	.	.
1A	.	.	.
.	.	2f	4b
.	.	.	4a
=114	=114	=114	=114
1G	2r	4e	1b
.	.	4d	.
.	2G	1g	.
1r	1d	.	1a
.	.	2f#	.
=115	=115	=115	=115
1C	2e	2g	0g
.	1c	2e	.
1G	.	1d	.
.	2B	.	.
=116	=116	=116	=116
2A	2c	2.c	1r
2.c	2.e	.	.
.	.	4B	.
.	.	1A	2r
4B	4d	.	.
4c	4e	.	2c
4A	4c	.	.
=117	=117	=117	=117
2B	2d	2G	1g
2c	2.e	1g	.
[1A	.	.	2a
.	4d	.	.
.	4c	4f#	[2cc
.	4B	4e	.
=118	=118	=118	=118
1A]	1c	2f#	4cc]
.	.	.	4b
.	.	2f#	4cc
.	.	.	4a
[1G	2.d	2g	2.b
.	.	2G	.
.	4c	.	4a
=119	=119	=119	=119
1G]	4B	1d	4b
.	4A	.	4cc
.	2B	.	4dd
.	.	.	4b
1r	2A	2e	2cc
.	2G	[2g	4b
.	.	.	4a
=120	=120	=120	=120
0r	4G	4g]	2b
.	4A	4f	.
.	4B	4g	2b
.	4c	4e	.
.	2d	2f	2a
.	2B	2g	[2dd
=121	=121	=121	=121
2r	1c	1e	4dd]
.	.	.	4cc
2C	.	.	1cc
1G	2r	1d	.
.	2G	.	2b
=122	=122	=122	=122
2A	2.c	1r	0cc
2.c	.	.	.
.	4d	.	.
.	1e	2r	.
4B	.	.	.
4c	.	2c	.
4A	.	.	.
=123	=123	=123	=123
2B	2d	1g	2r
1c	2e	.	2c
.	2c	2e	1g
2B	2d	2d	.
=124	=124	=124	=124
1A	1c	2.e	2a
.	.	.	1cc
.	.	4f#	.
1G	2r	1g	.
.	2G	.	4b
.	.	.	4a
=125	=125	=125	=125
0r	1d	1G	1b
.	2e	2.c	2.g
.	[2c	.	.
.	.	4d	4f#
=126	=126	=126	=126
0r	4c]	1e	2g
.	4B	.	.
.	4c	.	2a
.	4A	.	.
.	2B	2d	[1g
.	[2c	[2e	.
=127	=127	=127	=127
0r	2c]	2e]	1g]
.	2B	1g	.
.	1A	.	2r
.	.	2f#	[2cc
=128	=128	=128	=128
1r	1G	2g	2cc]
.	.	2g	2b
2r	1r	2f	1a
[2c	.	[2e	.
=129	=129	=129	=129
2c]	1r	2e]	2g
2B	.	2d	1g
1A	2r	1c	.
.	[2c	.	2f
=130	=130	=130	=130
1G	2c]	1g	2e
.	2B	.	4d
.	.	.	4e
[1F	2.A	[1c	4f
.	.	.	4g
.	.	.	4a
.	4G	.	4b
=131	=131	=131	=131
2F]	4A	1c]	1cc
.	4B	.	.
2E	1c	.	.
1D	.	1f	1dd
.	2B	.	.
=132	=132	=132	=132
0C	0c	0e	2g
.	.	.	2g
.	.	.	2a
.	.	.	[2cc
=133	=133	=133	=133
1r	1d	2r	4cc]
.	.	.	4b
.	.	2G	2b
2r	2c	2A	2a
2G	2B	2B	[2g
=134	=134	=134	=134
2A	2A	2c	2g]
2c	2A	2c	2f#
2c	2G	1d	2.g
2B	2G	.	.
.	.	.	4f
=135	=135	=135	=135
1c	2A	1r	1e
.	2.c	.	.
1G	.	2r	1d
.	4B	.	.
.	2B	2G	.
=136	=136	=136	=136
2F	2A	2A	2r
2E	2G	2c	2c
2D	1F	2c	2d
2D	.	2B	2f
=137	=137	=137	=137
1C	1G	2.c	2f
.	.	.	2e
.	.	8B	.
.	.	8A	.
1G	2r	1B	1d
.	2G	.	.
=138	=138	=138	=138
2c	2A	0r	2r
2B	2B	.	2d
1A	4c	.	2e
.	4B	.	.
.	4c	.	2f#
.	4d	.	.
=139	=139	=139	=139
1G	2e	2r	4g
.	.	.	4f
.	1d	2d	4g
.	.	.	4a
2r	.	2f	2b-
2A	[2c	2e	[2a
=140	=140	=140	=140
2F	2c]	1d	2a]
2G	2B	.	1g
1A	2.c	2r	.
.	.	2c	2f#
.	8B	.	.
.	8A	.	.
=141	=141	=141	=141
1G	2B	2d	2g
.	2G	2e	2g
1r	1d	4f	2a
.	.	4e	.
.	.	4f	2b
.	.	4g	.
=142	=142	=142	=142
2r	1.c	2a	4cc
.	.	.	4b
2C	.	4g	4cc
.	.	4f	4dd
2c	.	1g	2ee
2B	2d	.	[2dd
=143	=143	=143	=143
1A	2e	2a	4dd]
.	.	.	4cc
.	4d	2f	1cc
.	4c	.	.
1G	1d	2.g	.
.	.	.	2b
.	.	4f	.
=144	=144	=144	=144
2r	2.c	2e	1cc
2C	.	2c	.
.	4B	.	.
2F	2A	2d	2r
2E	2B	2e	2g
=145	=145	=145	=145
1D	2d	2.f	2a
.	2d	.	2b
.	.	8e	.
.	.	8d	.
1C	1G	2e	2.cc
.	.	2c	.
.	.	.	4b
=146	=146	=146	=146
2F	2r	2d	2a
2E	2G	2e	2cc
1D	2A	2.f	1dd
.	2B	.	.
.	.	8e	.
.	.	8d	.
=147	=147	=147	=147
1C	4c	1e	2r
.	4B	.	.
.	4c	.	2g
.	4d	.	.
2c	2e	2r	2a
2B	[2d	2g	2b
=148	=148	=148	=148
1A	2d]	2f	4cc
.	.	.	4b
.	1c	2e	4cc
.	.	.	4dd
2G	.	2g	2ee
2G	2B	[2g	[2dd
=149	=149	=149	=149
1A	1c	2g]	4dd]
.	.	.	4cc
.	.	2f#	1cc
1G	1d	[1g	.
.	.	.	2b
=150	=150	=150	=150
2E	[0c	2g]	2cc
1F	.	2c	1a
.	.	1f	.
4E	.	.	4g
4D	.	.	4f
=151	=151	=151	=151
0C	0c]	0e	0g
==	==	==	==
*-	*-	*-	*-
!!!CDT: 1525/^1526/-1594/2/2
!!!OCY: Italia
!!!AGN: Mass (Parody)
!!!AST: renaissance, vocal
!!!ASW: Motet 1532 (Richafort)
!!!PWK: Masses, Book 8
!!!RNB: Cadence finals: G
!!!YOR: Le Opere Complete, v. 24, p. 1
!!!YOO: Rome, Italy: Fratelli Scalera
!!!END: 1992//
!!!EED: John Miller
!!!YEC: Copyright 2000, John Miller
!!!YEN: United States of America
!!!YEM: Rights to all derivative electronic formats reserved.
!!!YEM: Refer to licensing agreement for further details.
!!!YEM: This file must be accompanied by the licensing agreement.
!!!YEM: A copy of the licensing agreement may be found at http://www.music-cog.ohio-state.edu/HumdrumDatabases/Palestrina/license.txt
!!!EMD: converted to Humdrum by Bret Aarden
